!!!!SEGMENT: pl-cz--iii-574--005_rodowski-aleksander--missa-in-c-sanctus.krn
!!!cenid: 18xx:1023
!!!COM: Rodowski, Aleksander
!!!COM-rismid: pe30009627
!!!CDT: <1790->1810
!!!CNT: Polish
!!!OPR: Missa in C
!!!OTL: Sanctus
!!!OMV: 005
!!!PDT: 1801
!!!AGN: Sacred; Mass
!!!SMS-siglum: PL-CZ
!!!SMS-shelfmark: III-574
!!!SMS-shelfwork: 001-005 M
!!!SMS-variant:
!!!SMS-altvar:
!!!NIFC-rismid: 300001098
!!!URL-scan: http://repozytorium.nifc.pl/skany/pl-cz-nut--iii-5744
!!!ONB-nifc: UWAGA: części Mszy: Kyrie, Christe, Gloria, Credo, Sanctus, Pleni, Benedictus, Agnus Dei
!!!key: C
**kern	**fba	**dynam	**kern	**dynam	**kern	**dynam	**kern	**text	**kern	**text	**kern	**text	**kern	**kern	**kern	**kern	**kern	**kern	**kern	**kern	**kern
*	*	*	*group4	*	*group4	*	*group3	*	*group3	*	*group3	*	*	*group2	*group2	*group2	*group2	*group1	*group1	*group1	*group1
*part15	*part15	*part15	*part14	*part14	*part13	*part13	*part12	*part12	*part11	*part11	*part10	*part10	*part9	*part8	*part7	*part6	*part5	*part4	*part3	*part2	*part1
*staff15	*	*	*staff14	*	*staff13	*	*staff12	*staff12	*staff11	*staff11	*staff10	*staff10	*staff9	*staff8	*staff7	*staff6	*staff5	*staff4	*staff3	*staff2	*staff1
*I"Organo.	*	*	*I"Violino Secondo.	*	*I"Violino Primo.	*	*I"Basſo.	*	*I"Alto.	*	*I"Canto.	*	*I"Tympano in C.	*I"Clarino Secondo in C.	*I"Clarino Primo. in C.	*I"Cornu. Secondo.	*I"Cornu. Primo. ex. C.	*I"Clarinetto Secondo. in B.	*I"Clarinetto Primo. in B.	*I"Oboe Secondo.	*I"Oboe Primo.
*I'org	*	*	*I'vl 2	*	*I'vl 1	*	*I'B	*	*I'A	*	*I'S	*	*I'timp	*I'clno 2	*I'clno 1	*I'cor 2	*I'cor 1	*I'cl 2 in B	*I'cl 1 in B	*I'ob 2	*I'ob 1
*Iorgan	*	*	*Ivioln	*	*Ivioln	*	*Ibass	*	*Ialto	*	*Isoprn	*	*Itimpa	*Itropm	*Itromp	*Icor	*Icor	*Iclars	*Iclars	*Ioboe	*Ioboe
*ICklav	*	*	*ICstr	*	*ICstr	*	*ICvox	*	*ICvox	*	*ICvox	*	*ICidio	*ICbras	*ICbras	*ICbras	*ICbras	*ICww	*ICww	*ICww	*ICww
*IGcont	*	*	*	*	*	*	*	*	*	*	*	*	*	*	*	*	*	*	*	*	*
*clefF4	*	*	*clefG2	*	*clefG2	*	*clefF4	*	*clefC3	*	*clefC1	*	*clefF4	*clefG2	*clefG2	*clefG2	*clefG2	*clefG2	*clefG2	*clefG2	*clefG2
*	*	*	*	*	*	*	*	*	*	*	*	*	*	*	*	*	*	*ITrd1c2	*ITrd1c2	*	*
*k[]	*	*	*k[]	*	*k[]	*	*k[]	*	*k[]	*	*k[]	*	*k[]	*k[]	*k[]	*k[]	*k[]	*k[]	*k[]	*k[]	*k[]
*	*	*	*	*	*	*	*	*	*	*	*	*	*	*	*	*	*	*C:	*C:	*	*
*M2/4	*	*	*M2/4	*	*M2/4	*	*M2/4	*	*M2/4	*	*M2/4	*	*M2/4	*M2/4	*M2/4	*M2/4	*M2/4	*M2/4	*M2/4	*M2/4	*M2/4
=1	=1	=1	=1	=1	=1	=1	=1	=1	=1	=1	=1	=1	=1	=1	=1	=1	=1	=1	=1	=1	=1
*2\right	*	*	*	*	*	*	*	*	*	*	*	*	*	*	*	*	*2\right	*	*	*	*
*tremolo	*	*	*	*below	*	*below	*	*	*	*	*	*	*	*	*	*	*	*	*	*	*
!LO:TX:a:i:t=adagio.	!	!	!LO:TX:a:i:t=adagio.	!LO:DY:t=for	!LO:TX:a:i:t=Adagio.	!LO:DY:t=for	!LO:TX:a:i:t=adagio.	!	!LO:TX:a:i:t=Adagio.	!	!LO:TX:a:i:t=Adagio.	!	!LO:TX:a:i:t=Sanctus Tacet.	!LO:TX:a:i:t=Sanctus Tacet.	!LO:TX:a:i:t=Sanctus Tacet.	!LO:TX:a:i:t=adagio.	!	!LO:TX:a:i:rj:t=Adagio.	!LO:TX:a:i:t=Adagio.	!LO:TX:a:i:rj:t=Adagio.	!LO:TX:a:i:t=Adagio.
8c\L	.	.	32c/LLL	f	16cc\LL	f	4c\	San-	4ee\	San-	[<4gg\	San-	2ryy	2ryy	2ryy	2c/	2cc\	4ee\	4gg\	4ee\	4gg\
.	.	.	32e/	.	.	.	.	.	.	.	.	.	.	.	.	.	.	.	.	.	.
.	.	.	32g/	.	16ee\	.	.	.	.	.	.	.	.	.	.	.	.	.	.	.	.
.	.	.	32e/JJJ	.	.	.	.	.	.	.	.	.	.	.	.	.	.	.	.	.	.
8c\	.	.	32c/LLL	.	16gg\	.	.	.	.	.	.	.	.	.	.	.	.	.	.	.	.
.	.	.	32e/	.	.	.	.	.	.	.	.	.	.	.	.	.	.	.	.	.	.
.	.	.	32g/	.	16ccc\JJ	.	.	.	.	.	.	.	.	.	.	.	.	.	.	.	.
.	.	.	32e/JJJ	.	.	.	.	.	.	.	.	.	.	.	.	.	.	.	.	.	.
*	*	*	*rep	*	*	*	*	*	*	*	*	*	*	*	*	*	*	*	*	*	*
8c\	.	.	32c/LLL	.	16bb\LL	.	(8c\	-ctus	(8ee\	-ctus	8gg\]	.	.	.	.	.	.	8ee\L	8gg\L	8ee\L	8gg\L
.	.	.	32e/	.	.	.	.	.	.	.	.	.	.	.	.	.	.	.	.	.	.
.	.	.	32g/	.	16ccc\	.	.	.	.	.	.	.	.	.	.	.	.	.	.	.	.
.	.	.	32e/JJJ	.	.	.	.	.	.	.	.	.	.	.	.	.	.	.	.	.	.
*	*	*	*Xrep	*	*	*	*	*	*	*	*	*	*	*	*	*	*	*	*	*	*
*	*	*	*rep	*	*	*	*	*	*	*	*	*	*	*	*	*	*	*	*	*	*
8c\J	.	.	32c/LLL	.	16bb\	.	8c\)	.	8ee\)	.	8gg\	-ctus	.	.	.	.	.	8ee\J	8gg\J	8ee\J	8gg\J
.	.	.	32e/	.	.	.	.	.	.	.	.	.	.	.	.	.	.	.	.	.	.
.	.	.	32g/	.	16ccc\JJ	.	.	.	.	.	.	.	.	.	.	.	.	.	.	.	.
.	.	.	32e/JJJ	.	.	.	.	.	.	.	.	.	.	.	.	.	.	.	.	.	.
*Xtremolo	*	*	*Xrep	*	*	*	*	*	*	*	*	*	*	*	*	*	*	*	*	*	*
=2	=2	=2	=2	=2	=2	=2	=2	=2	=2	=2	=2	=2	=2	=2	=2	=2	=2	=2	=2	=2	=2
2c\	6 4	.	32c/LLL	.	16cc\LL	.	8.c\	Do-	8.ff'\L	Do-	8.aa'\L	Do-	2ryy	2ryy	2ryy	2c/	2cc\	8.ff\L	4aa\	8.ff\L	4aa\
.	.	.	32f/	.	.	.	.	.	.	.	.	.	.	.	.	.	.	.	.	.	.
.	.	.	32a/	.	16ff\	.	.	.	.	.	.	.	.	.	.	.	.	.	.	.	.
.	.	.	32f/JJJ	.	.	.	.	.	.	.	.	.	.	.	.	.	.	.	.	.	.
!	!	!	!LO:TX:t=P:problem:połowa grupy zapisana znakiem powtórki	!	!	!	!	!	!	!	!	!	!	!	!	!	!	!	!	!	!
.	.	.	32c/LLL	.	16aa\	.	.	.	.	.	.	.	.	.	.	.	.	.	.	.	.
.	.	.	32e/	.	.	.	.	.	.	.	.	.	.	.	.	.	.	.	.	.	.
.	.	.	32a/	.	16ccc\JJ	.	16c\	-mi-	16ff'\Jk	-mi-	16aa'\Jk	-mi-	.	.	.	.	.	16ee\Jk	.	16ff\Jk	.
.	.	.	32f/JJJ	.	.	.	.	.	.	.	.	.	.	.	.	.	.	.	.	.	.
*	*	*	*rep	*	*	*	*	*	*	*	*	*	*	*	*	*	*	*	*	*	*
.	.	.	32c/LLL	.	16bb\LL	.	4c\	-nus	4ff'\	-nus	4aa'\	-nus	.	.	.	.	.	4ff\	8aa\L	4ff\	8aa\L
.	.	.	32e/	.	.	.	.	.	.	.	.	.	.	.	.	.	.	.	.	.	.
.	.	.	32a/	.	16ccc\	.	.	.	.	.	.	.	.	.	.	.	.	.	.	.	.
.	.	.	32f/JJJ	.	.	.	.	.	.	.	.	.	.	.	.	.	.	.	.	.	.
*	*	*	*Xrep	*	*	*	*	*	*	*	*	*	*	*	*	*	*	*	*	*	*
*	*	*	*rep	*	*	*	*	*	*	*	*	*	*	*	*	*	*	*	*	*	*
.	.	.	32c/LLL	.	16bb\	.	.	.	.	.	.	.	.	.	.	.	.	.	8aa\J	.	8aa\J
.	.	.	32e/	.	.	.	.	.	.	.	.	.	.	.	.	.	.	.	.	.	.
.	.	.	32a/	.	16ccc\JJ	.	.	.	.	.	.	.	.	.	.	.	.	.	.	.	.
.	.	.	32f/JJJ	.	.	.	.	.	.	.	.	.	.	.	.	.	.	.	.	.	.
*	*	*	*Xrep	*	*	*	*	*	*	*	*	*	*	*	*	*	*	*	*	*	*
=3	=3	=3	=3	=3	=3	=3	=3	=3	=3	=3	=3	=3	=3	=3	=3	=3	=3	=3	=3	=3	=3
*tremolo	*	*	*	*	*	*	*	*	*	*	*	*	*	*	*	*	*	*	*	*	*
8G\L	7 5	.	32d/LLL	.	16bb\LL	.	8B\	De-	8dd\	De-	(8ff\	De-	2ryy	2ryy	2ryy	8g/L	8g/L	8dd\L	8ff\L	8dd\L	8ff\L
.	.	.	32f/	.	.	.	.	.	.	.	.	.	.	.	.	.	.	.	.	.	.
.	.	.	32g/	.	16ccc\	.	.	.	.	.	.	.	.	.	.	.	.	.	.	.	.
.	.	.	32f/JJJ	.	.	.	.	.	.	.	.	.	.	.	.	.	.	.	.	.	.
8G\	.	.	32d/LLL	.	16ddd\	.	8B\	-us	8dd\	.	8ff\	.	.	.	.	8g/	8g/	8dd\	8ff\	8dd\	8ff\
.	.	.	32f/	.	.	.	.	.	.	.	.	.	.	.	.	.	.	.	.	.	.
.	.	.	32g/	.	16ccc\JJ	.	.	.	.	.	.	.	.	.	.	.	.	.	.	.	.
.	.	.	32f/JJJ	.	.	.	.	.	.	.	.	.	.	.	.	.	.	.	.	.	.
*	*	*	*rep	*	*	*	*	*	*	*	*	*	*	*	*	*	*	*	*	*	*
8G\	.	.	32d/LLL	.	16bb\LL	.	8G\	Sa-	8dd\	-us	8ff\)	-us	.	.	.	8g/	8g/	8dd\	8ff\	8dd\	8ff\
.	.	.	32f/	.	.	.	.	.	.	.	.	.	.	.	.	.	.	.	.	.	.
.	.	.	32g/	.	16gg\	.	.	.	.	.	.	.	.	.	.	.	.	.	.	.	.
.	.	.	32f/JJJ	.	.	.	.	.	.	.	.	.	.	.	.	.	.	.	.	.	.
*	*	*	*Xrep	*	*	*	*	*	*	*	*	*	*	*	*	*	*	*	*	*	*
*	*	*	*rep	*	*	*	*	*	*	*	*	*	*	*	*	*	*	*	*	*	*
8G\J	.	.	32d/LLL	.	16aa\	.	8G\	.	8dd\	Sa-	8ff\	Sa-	.	.	.	8g/J	8g/J	8dd\J	8ff\J	8dd\J	8ff\J
.	.	.	32f/	.	.	.	.	.	.	.	.	.	.	.	.	.	.	.	.	.	.
.	.	.	32g/	.	16bb\JJ	.	.	.	.	.	.	.	.	.	.	.	.	.	.	.	.
.	.	.	32f/JJJ	.	.	.	.	.	.	.	.	.	.	.	.	.	.	.	.	.	.
*Xtremolo	*	*	*Xrep	*	*	*	*	*	*	*	*	*	*	*	*	*	*	*	*	*	*
!	!	!	!LO:LB:g=original	!	!	!	!	!	!LO:LB:g=original	!	!	!	!	!	!	!	!	!	!	!	!
=4	=4	=4	=4	=4	=4	=4	=4	=4	=4	=4	=4	=4	=4	=4	=4	=4	=4	=4	=4	=4	=4
!LO:TX:t=P:problem:mixed beam	!	!	!	!	!	!	!	!	!	!	!	!	!	!	!	!	!	!	!	!	!
8c\L	.	.	32c/LLL	.	16ddd\LL	.	8c\	-ba-	8cc\	-ba-	8ee\	-ba-	2ryy	2ryy	2ryy	8cc/L	8cc/L	16cc\LL	16ee\LL	16cc\LL	16ee\LL
.	.	.	32e/	.	.	.	.	.	.	.	.	.	.	.	.	.	.	.	.	.	.
.	.	.	32g/	.	16ccc\	.	.	.	.	.	.	.	.	.	.	.	.	32cc\L	32ee\L	32cc\L	32ee\L
.	.	.	32e/JJJ	.	.	.	.	.	.	.	.	.	.	.	.	.	.	32ee\JJJ	32gg\JJJ	32ee\JJJ	32gg\JJJ
8G\	.	.	32c/LLL	.	16gg\	.	8C/	-oth.	8cc\	-oth.	8ee\	-oth.	.	.	.	8g/	8g/	8cc\	8ee\	8cc\	8ee\
.	.	.	32e/	.	.	.	.	.	.	.	.	.	.	.	.	.	.	.	.	.	.
.	.	.	32g/	.	16ee\JJ	.	.	.	.	.	.	.	.	.	.	.	.	.	.	.	.
.	.	.	32e/JJJ	.	.	.	.	.	.	.	.	.	.	.	.	.	.	.	.	.	.
8C/J	.	.	8c/	.	8cc\	.	4r	.	4r	.	4r	.	.	.	.	8c/J	8e/J	4r	4r	4r	4r
8r	.	.	8r	.	8r	.	.	.	.	.	.	.	.	.	.	8r	8r	.	.	.	.
!	!	!	!	!	!LO:LB:g=original	!	!LO:LB:g=original	!	!	!	!LO:LB:g=original	!	!	!	!	!	!	!LO:LB:g=original	!	!	!
=5	=5	=5	=5	=5	=5	=5	=5	=5	=5	=5	=5	=5	=5	=5	=5	=5	=5	=5	=5	=5	=5
!	!	!LO:DY:t=pia	!	!LO:DY:t=pia	!	!LO:DY:t=pia	!LO:TX:a:t=1.	!	!	!	!	!	!	!	!	!LO:TX:a:t=1	!LO:TX:a:t=1.	!	!LO:TX:a:i:t=Solo	!	!
8C/	.	p	4c/	p	4c/	p	2r	.	8.e\	Sa-	8.cc\	Sa-	2ryy	2ryy	2ryy	2r	2r	8.e/L	8.cc\L	8.e/L	8.cc\L
8r	.	.	.	.	.	.	.	.	.	.	.	.	.	.	.	.	.	.	.	.	.
.	.	.	.	.	.	.	.	.	16b\	-ba-	16dd\	-ba-	.	.	.	.	.	16b/Jk	16dd\Jk	16b/Jk	16dd\Jk
8c\	.	.	4r	.	4r	.	.	.	8cc\	-oth	8ee\	-oth	.	.	.	.	.	8cc\L	8ee\L	8cc\L	8ee\L
8r	.	.	.	.	.	.	.	.	8cc\	Sa-	8ee\	Sa-	.	.	.	.	.	8cc\J	8ee\J	8cc\J	8ee\J
!	!	!	!	!	!	!	!	!	!	!	!	!	!	!	!	!	!	!	!LO:LB:g=original	!LO:LB:g=original	!
=6	=6	=6	=6	=6	=6	=6	=6	=6	=6	=6	=6	=6	=6	=6	=6	=6	=6	=6	=6	=6	=6
8G\	6 4	.	4r	.	4r	.	4r	.	8.cc\	.	(8.ee\	.	2ryy	2ryy	2ryy	4r	4r	8.cc\L	8.ee\L	8.cc\L	8.ee\L
8r	.	.	.	.	.	.	.	.	.	.	.	.	.	.	.	.	.	.	.	.	.
.	.	.	.	.	.	.	.	.	16dd\	-ba-	16ff\)	-ba-	.	.	.	.	.	16dd\Jk	16ff\Jk	16dd\Jk	16ff\Jk
16r	.	.	16r	.	16r	.	16r	.	4b\	-oth	4dd\	-oth	.	.	.	8G/L	8g/L	4b\	4dd\	4b\	4dd\
16GG/LL	.	.	16g/LL	.	16g/LL	.	16GG/	Sanc-	.	.	.	.	.	.	.	.	.	.	.	.	.
16BB/	.	.	16b/	.	16b/	.	16BB/	.	.	.	.	.	.	.	.	8G/J	8g/J	.	.	.	.
16D/JJ	.	.	16dd/JJ	.	16dd/JJ	.	16D/	-tus	.	.	.	.	.	.	.	.	.	.	.	.	.
!	!	!	!	!	!	!	!	!	!	!	!	!	!	!	!	!	!	!	!	!	!LO:LB:g=original
=7	=7	=7	=7	=7	=7	=7	=7	=7	=7	=7	=7	=7	=7	=7	=7	=7	=7	=7	=7	=7	=7
8GG/	.	.	4gg\	.	4gg\	.	8G\	San-	(8.b\	Do-	(8dd\	Do-	2ryy	2ryy	2ryy	4G/	4g/	8.b\L	8.dd\L	8.b\L	8.dd\L
8r	.	.	.	.	.	.	8GG/	-ctus,	.	.	8ee\)	.	.	.	.	.	.	.	.	.	.
!	!	!	!	!	!	!	!	!	!LO:N:vis=8	!	!	!	!	!	!	!	!	!	!	!	!
.	.	.	.	.	.	.	.	.	16cc\	.	.	.	.	.	.	.	.	16cc\Jk	16ee\Jk	16cc\Jk	16ee\Jk
8G\	.	.	4r	.	4r	.	4r	.	8dd\)	-mi-	8ff\	-mi-	.	.	.	4r	4r	8dd\L	8ff\L	8dd\L	8ff\L
8r	.	.	.	.	.	.	.	.	8dd\	-nus	8ff\	-nus	.	.	.	.	.	8dd\J	8ff\J	8dd\J	8ff\J
!LO:LB:g=original	!	!	!	!	!	!	!	!	!	!	!	!	!	!	!	!	!	!	!	!	!
=8	=8	=8	=8	=8	=8	=8	=8	=8	=8	=8	=8	=8	=8	=8	=8	=8	=8	=8	=8	=8	=8
8C/	4 2	.	4r	.	4r	.	4r	.	8.dd\	De-	8.ff\	De-	2ryy	2ryy	2ryy	4r	4r	8.dd\L	8.ff\L	8.dd\L	8.ff\L
8r	.	.	.	.	.	.	.	.	.	.	.	.	.	.	.	.	.	.	.	.	.
!	!	!	!	!	!	!	!	!	!LO:N:vis=8	!	!	!	!	!	!	!	!	!	!	!	!
.	.	.	.	.	.	.	.	.	16ee\	-us	16gg\	-us	.	.	.	.	.	16ee\Jk	16gg\Jk	16ee\Jk	16gg\Jk
16r	.	.	16r	.	16r	.	16r	.	8cc\	Sa-	8ee\	Sa-	.	.	.	8c/L	8cc\L	8b\L	8ee\L	8cc\L	8ee\L
16C\LL	5 3	.	16c/LL	.	16cc\LL	.	16C\LL	San-	.	.	.	.	.	.	.	.	.	.	.	.	.
16E\	.	.	16e/	.	16ee\	.	16E\	.	8ee\	-ba-	8gg\	-ba-	.	.	.	8c/J	8cc\J	8ee\J	8gg\J	8ee\J	8gg\J
16G\JJ	.	.	16g/JJ	.	16gg\JJ	.	16G\JJ	.	.	.	.	.	.	.	.	.	.	.	.	.	.
=9	=9	=9	=9	=9	=9	=9	=9	=9	=9	=9	=9	=9	=9	=9	=9	=9	=9	=9	=9	=9	=9
4c\	.	.	4cc\	.	4ccc\	.	4c\	.	4cc\	-oth	4ccc\	-oth	2ryy	2ryy	2ryy	2c/	4cc\	4cc\	4ccc\	4cc\	4ccc\
4A\	5 3	.	4a/	.	4aa\	.	4A\	-tus	4a\	Sa-	4aa\	Sa-	.	.	.	.	4cc\	4a\	4aa\	4a\	4aa\
!	!	!	!	!	!	!	!	!	!LO:LB:g=original	!	!	!	!	!	!	!	!LO:LB:g=original	!	!	!	!
=10	=10	=10	=10	=10	=10	=10	=10	=10	=10	=10	=10	=10	=10	=10	=10	=10	=10	=10	=10	=10	=10
4E\	6	.	4e/	.	4ee\	.	4E\	Do-	4e\	.	(4ee\	.	2ryy	2ryy	2ryy	4e/	8e/L	4e/	4ee\	4e/	4ee\
.	.	.	.	.	.	.	.	.	.	.	.	.	.	.	.	.	8c/J	.	.	.	.
4F#X\	6 5	.	4f#X/	.	4ff#X\	.	4F#X\	-mi-	4f#X\	-ba-	4ff#X\)	-ba-	.	.	.	4c/	8e/L	4f#X/	4ff#X\	4f#X/	4ff#X\
.	.	.	.	.	.	.	.	.	.	.	.	.	.	.	.	.	8c/J	.	.	.	.
!	!	!	!	!	!	!	!	!	!	!	!LO:LB:g=original	!	!	!	!	!LO:LB:g=original	!	!	!	!	!
=11	=11	=11	=11	=11	=11	=11	=11	=11	=11	=11	=11	=11	=11	=11	=11	=11	=11	=11	=11	=11	=11
*tremolo	*	*	*tremolo	*	*	*	*	*	*	*	*	*	*	*	*	*	*	*	*	*	*
!	!	!	!	!	!LO:TX:t=P:problem:mixed beam	!	!	!	!	!	!	!	!	!	!	!	!	!	!	!	!
16G\LL	.	.	16g/LL	.	16gg\LL	.	8G\	-nus	8g\	-oth.	8gg\	-oth.	2ryy	2ryy	2ryy	16g/LL	16g/LL	8g/	8gg\	8g/	8gg\
16G\	.	.	16g/	.	16g/	.	.	.	.	.	.	.	.	.	.	16g/	16g/	.	.	.	.
16G\	.	.	16g/	.	16g/	.	8r	.	8r	.	8r	.	.	.	.	16g/	16g/	8r	8r	8r	8r
16G\	.	.	16g/	.	16g/JJ	.	.	.	.	.	.	.	.	.	.	16g/JJ	16g/JJ	.	.	.	.
16G\	.	.	16g/	.	16g/LL	.	4r	.	8r	.	8r	.	.	.	.	16g/LL	16g/LL	8r	8r	8r	8r
16G\	.	.	16g/	.	16g/	.	.	.	.	.	.	.	.	.	.	16g/	16g/	.	.	.	.
16G\	.	.	16g/	.	16g/	.	.	.	8ee\	Sanc-	8gg\	Sanc-	.	.	.	16g/	16g/	8ee\	8gg\	8ee\	8gg\
16G\JJ	.	.	16g/JJ	.	16g/JJ	.	.	.	.	.	.	.	.	.	.	16g/JJ	16g/JJ	.	.	.	.
!	!	!	!	!	!	!	!LO:LB:g=original	!	!	!	!	!	!	!	!	!	!	!	!	!	!
=12	=12	=12	=12	=12	=12	=12	=12	=12	=12	=12	=12	=12	=12	=12	=12	=12	=12	=12	=12	=12	=12
!	!	!	!	!	!	!	!LO:TX:a:t=1.	!	!	!	!	!	!	!	!	!	!	!	!	!	!
16G\LL	.	.	16g/LL	.	16g/LL	.	2r	.	8.ee\L	.	8.gg\L	.	2ryy	2ryy	2ryy	2g/	2g/	8.ee\L	8.gg\L	8.ee\L	8.gg\L
16G\	.	.	16g/	.	16g/	.	.	.	.	.	.	.	.	.	.	.	.	.	.	.	.
16G\	.	.	16g/	.	16g/	.	.	.	.	.	.	.	.	.	.	.	.	.	.	.	.
16G\	.	.	16g/	.	16g/JJ	.	.	.	16cc\Jk	.	16ee\Jk	.	.	.	.	.	.	16cc\Jk	16ee\Jk	16cc\Jk	16ee\Jk
16G\	.	.	16g/	.	16g/LL	.	.	.	8.ff\L	.	8.aa\L	.	.	.	.	.	.	8.ff\L	8.aa\L	8.ff\L	8.aa\L
16G\	.	.	16g/	.	16g/	.	.	.	.	.	.	.	.	.	.	.	.	.	.	.	.
16G\	.	.	16g/	.	16g/	.	.	.	.	.	.	.	.	.	.	.	.	.	.	.	.
16G\JJ	.	.	16g/JJ	.	16g/JJ	.	.	.	16ee\Jk	.	16gg\Jk	.	.	.	.	.	.	16ee\Jk	16gg\Jk	16ee\Jk	16gg\Jk
!	!	!	!	!	!	!	!	!	!	!	!	!	!	!	!	!	!	!LO:LB:g=original	!LO:LB:g=original	!	!
=13	=13	=13	=13	=13	=13	=13	=13	=13	=13	=13	=13	=13	=13	=13	=13	=13	=13	=13	=13	=13	=13
16G\LL	.	.	16g/LL	.	16g/LL	.	16r	.	8dd\	-tus.	8ff\	-tus	2ryy	2ryy	2ryy	2g/	2g/	8dd\L	8ff\L	8dd\L	8ff\L
16G\	.	.	16g/	.	16g/	.	16G\	Do-	.	.	.	.	.	.	.	.	.	.	.	.	.
16G\	.	.	16g/	.	16g/	.	16B\	.	8r	.	8r	.	.	.	.	.	.	8b\	8dd\	8b\	8dd\
16G\	.	.	16g/	.	16g/JJ	.	16d\	.	.	.	.	.	.	.	.	.	.	.	.	.	.
16G\	.	.	16g/	.	16g/LL	.	16B\	-mi-	8r	.	8r	.	.	.	.	.	.	8cc\	8ee\	8cc\	8ee\
16G\	.	.	16g/	.	16g/	.	16G\	-nus	.	.	.	.	.	.	.	.	.	.	.	.	.
16G\	.	.	16g/	.	16g/	.	8r	.	8dd\	Sanc-	8ff\	Sanc-	.	.	.	.	.	8dd\J	8ff\J	8dd\J	8gg\J
16G\JJ	.	.	16g/JJ	.	16g/JJ	.	.	.	.	.	.	.	.	.	.	.	.	.	.	.	.
!	!	!	!	!	!LO:LB:g=original	!	!	!	!	!	!	!	!	!	!	!	!	!	!	!LO:LB:g=original	!
=14	=14	=14	=14	=14	=14	=14	=14	=14	=14	=14	=14	=14	=14	=14	=14	=14	=14	=14	=14	=14	=14
!	!	!	!	!	!	!	!LO:TX:a:t=1.	!	!	!	!	!	!	!	!	!	!	!	!	!	!
16G\LL	.	.	16g/LL	.	16g/LL	.	2r	.	8.dd\	.	8.ff\L	.	2ryy	2ryy	2ryy	2g/	2g/	8.dd\L	8.ff\L	8.dd\L	8.ff\L
16G\	.	.	16g/	.	16g/	.	.	.	.	.	.	.	.	.	.	.	.	.	.	.	.
16G\	.	.	16g/	.	16g/	.	.	.	.	.	.	.	.	.	.	.	.	.	.	.	.
16G\	.	.	16g/	.	16g/JJ	.	.	.	16b\	.	16dd\Jk	.	.	.	.	.	.	16b\Jk	16dd\Jk	16b\Jk	16dd\Jk
16G\	.	.	16g/	.	16g/LL	.	.	.	8ee\	.	8.gg\L	.	.	.	.	.	.	8.ee\L	8.gg\L	8.ee\L	8.gg\L
16G\	.	.	16g/	.	16g/	.	.	.	.	.	.	.	.	.	.	.	.	.	.	.	.
16G\	.	.	16g/	.	16g/	.	.	.	8dd\	.	.	.	.	.	.	.	.	.	.	.	.
16G\JJ	.	.	16g/JJ	.	16g/JJ	.	.	.	.	.	16ff\Jk	.	.	.	.	.	.	16dd\Jk	16ff\Jk	16dd\Jk	16ff\Jk
*Xtremolo	*	*	*Xtremolo	*	*	*	*	*	*	*	*	*	*	*	*	*	*	*	*	*	*
!	!	!	!	!	!	!	!	!	!LO:LB:g=original	!	!	!	!	!	!	!	!	!	!	!	!LO:LB:g=original
=15	=15	=15	=15	=15	=15	=15	=15	=15	=15	=15	=15	=15	=15	=15	=15	=15	=15	=15	=15	=15	=15
4C/	.	.	4c/	.	4cc\	.	16r	.	8cc\	-ctus	8ee\	-tus	2ryy	2ryy	2ryy	4c/	4c/	8cc\L	8ee\L	8cc\L	8ee\L
.	.	.	.	.	.	.	16C/	De-	.	.	.	.	.	.	.	.	.	.	.	.	.
.	.	.	.	.	.	.	16E/	.	8r	.	8r	.	.	.	.	.	.	8ee\	8gg\	8ee\	8gg\
.	.	.	.	.	.	.	16G\	.	.	.	.	.	.	.	.	.	.	.	.	.	.
4r	.	.	4r	.	4r	.	16c\	.	8r	.	8r	.	.	.	.	4r	4r	8dd\	8ff\	8dd\	8ff\
.	.	.	.	.	.	.	16C/	-us	.	.	.	.	.	.	.	.	.	.	.	.	.
.	.	.	.	.	.	.	16r	.	8cc\	Sanc-	8ee\	Sanc-	.	.	.	.	.	8b\J	8dd\J	8b\J	8dd\J
*	*	*	*	*	*	*	*	*ij	*	*	*	*	*	*	*	*	*	*	*	*	*
.	.	.	.	.	.	.	16C/	De-	.	.	.	.	.	.	.	.	.	.	.	.	.
=16	=16	=16	=16	=16	=16	=16	=16	=16	=16	=16	=16	=16	=16	=16	=16	=16	=16	=16	=16	=16	=16
4c\	.	.	4c/	.	4cc\	.	4c\	.	8.cc\L	-tus,	8.ee\L	-tus	2ryy	2ryy	2ryy	4c/	4cc\	4cc\	4ee\	4cc\	4ee\
.	.	.	.	.	.	.	.	.	16dd\Jk	.	16ff\Jk	.	.	.	.	.	.	.	.	.	.
!LO:N:vis=8	!	!	!	!	!	!	!	!	!	!	!	!	!	!	!	!	!	!	!	!	!
16r	.	.	4r	.	4r	.	8c\	-us	8cc\	.	8ee\	.	.	.	.	16r	16r	16r	16r	16r	16r
*	*	*	*	*	*	*	*	*Xij	*	*	*	*	*	*	*	*	*	*	*	*	*
16c\LL	.	.	.	.	.	.	.	.	.	.	.	.	.	.	.	16c/LL	16cc\LL	16cc\LL	16ee\LL	16cc\LL	16ee\LL
16c\	.	.	.	.	.	.	16r	.	16r	.	16r	.	.	.	.	16c/	16cc\	16cc\	16ee\	16cc\	16ee\
16c\JJ	.	.	.	.	.	.	16c\	De-	16cc\	Sanc-	16ee\	Sanc-	.	.	.	16c/JJ	16cc\JJ	16cc\JJ	16ee\JJ	16cc\JJ	16ee\JJ
!	!	!	!LO:LB:g=original	!	!	!	!LO:LB:g=original	!	!	!	!	!	!	!	!	!	!	!	!	!	!
=17	=17	=17	=17	=17	=17	=17	=17	=17	=17	=17	=17	=17	=17	=17	=17	=17	=17	=17	=17	=17	=17
4A\	.	.	4A/	.	4a/	.	4A\	-us	8.cc\L	-tus,	8.ee\L	-tus,	2ryy	2ryy	2ryy	4c/	4cc\	4cc\	4ee\	4cc\	4ee\
.	.	.	.	.	.	.	.	.	16dd\Jk	.	16ff\Jk	.	.	.	.	.	.	.	.	.	.
16r	.	.	4r	.	4r	.	8A\	.	8cc\	.	8ee\	.	.	.	.	16r	16r	16r	16r	16r	16r
16A\LL	.	.	.	.	.	.	.	.	.	.	.	.	.	.	.	16c/LL	16cc\LL	16cc\LL	16ee\LL	16cc\LL	16ee\LL
16A\	.	.	.	.	.	.	16r	.	16r	.	16r	.	.	.	.	16c/	16cc\	16cc\	16ee\	16cc\	16ee\
16A\JJ	.	.	.	.	.	.	16A\	De-	16cc\	Do-	16ee\	San-	.	.	.	16c/JJ	16cc\JJ	16cc\JJ	16ee\JJ	16cc\JJ	16ee\JJ
!	!	!	!	!	!	!	!	!	!	!	!LO:LB:g=original	!	!	!	!	!	!	!	!	!	!
=18	=18	=18	=18	=18	=18	=18	=18	=18	=18	=18	=18	=18	=18	=18	=18	=18	=18	=18	=18	=18	=18
!	!	!	!	!	!	!	!	!	!	!	!	!	!	!	!	!LO:TX:a:t=1.	!LO:TX:a:t=1.	!	!	!	!
4F\	.	.	4f/	.	4a/	.	8F\	.	16a\LL	.	8ff\	.	2ryy	2ryy	2ryy	2r	2r	16a\LL	8ff\L	16a\LL	8ff\L
.	.	.	.	.	.	.	.	.	16b\JJ	.	.	.	.	.	.	.	.	16b\	.	16b\	.
.	.	.	.	.	.	.	8F\	-us	16cc\LL	.	8ff\	-ctus	.	.	.	.	.	16cc\	8ff\	16cc\	8ff\
.	.	.	.	.	.	.	.	.	16dd\JJ	.	.	.	.	.	.	.	.	16dd\JJ	.	16dd\JJ	.
!LO:TX:t=P:problem:mixed beam	!	!	!	!	!	!	!	!	!	!	!	!	!	!	!	!	!	!	!	!	!
8G\L	.	.	8e/L	.	8g/L	.	8G\	Sa-	(8cc\	.	(8ee\	De-	.	.	.	.	.	8cc\L	8ee\	8cc\L	8ee\
8GG/J	.	.	8d/J	.	8b/J	.	8GG/	-ba-	8b\)	-mi-	8dd\)	.	.	.	.	.	.	8b\J	8dd\J	8b\J	8dd\J
!LO:LB:g=original	!	!	!	!	!	!	!	!	!	!	!	!	!	!	!	!	!	!	!LO:PB:g=original	!	!
=19	=19	=19	=19	=19	=19	=19	=19	=19	=19	=19	=19	=19	=19	=19	=19	=19	=19	=19	=19	=19	=19
!LO:TX:t=P:problem:mixed beam	!	!	!	!LO:DY:t=for	!	!LO:DY:t=for	!	!	!	!	!	!	!	!	!	!	!	!	!	!	!
16C/LL	.	.	32e/LLL	f	32cc\LLL	f	8C/	-oth.	8cc\	-nus	8ee\	-us,	2ryy	2ryy	2ryy	8c/L	8c/L	16cc\LL	16ee\LL	16cc\LL	16ee\LL
.	.	.	32c/	.	32cc\	.	.	.	.	.	.	.	.	.	.	.	.	.	.	.	.
16c\	.	.	32B/	.	32dd\	.	.	.	.	.	.	.	.	.	.	.	.	32ee\L	32gg\L	32ee\L	32gg\L
.	.	.	32c/JJJ	.	32ee\JJJ	.	.	.	.	.	.	.	.	.	.	.	.	32dd\JJJ	32ff\JJJ	32dd\JJJ	32ff\JJJ
16G\	.	.	32d/LLL	.	32ff\LLL	.	8r	.	8r	.	8r	.	.	.	.	8c/	8c/	8cc\	8ee\	8cc\	8ee\
.	.	.	32e/	.	32gg\	.	.	.	.	.	.	.	.	.	.	.	.	.	.	.	.
16E\JJ	.	.	32f/	.	32aa\	.	.	.	.	.	.	.	.	.	.	.	.	.	.	.	.
.	.	.	32d/JJJ	.	32bb\JJJ	.	.	.	.	.	.	.	.	.	.	.	.	.	.	.	.
4C/	.	.	4e/	.	4ccc\	.	8r	.	8r	.	8r	.	.	.	.	8c/J	8c/J	4r	4r	4r	4r
.	.	.	.	.	.	.	8G\	De-	8cc\	De-	8ee\	Sanc-	.	.	.	8r	8r	.	.	.	.
!	!	!	!	!	!	!	!	!	!LO:LB:g=original	!	!	!	!	!	!	!LO:LB:g=original	!LO:LB:g=original	!LO:LB:g=original	!	!	!
=20	=20	=20	=20	=20	=20	=20	=20	=20	=20	=20	=20	=20	=20	=20	=20	=20	=20	=20	=20	=20	=20
!	!	!	!	!LO:DY:t=pia	!	!	!	!	!	!	!	!	!	!	!	!	!	!	!	!	!
4C/	.	.	4c/	p	4cc\	.	(4c\	.	8.cc\L	.	8.ee\L	.	2ryy	2ryy	2ryy	4c/	4cc\	4cc\	4ee\	4cc\	4ee\
.	.	.	.	.	.	.	.	.	16dd\Jk	.	16ff\Jk	.	.	.	.	.	.	.	.	.	.
16r	.	.	4r	.	4r	.	8c\)	-us	8cc\	-us	8ee\	-tus	.	.	.	16r	16r	16r	16r	16r	16r
16c\LL	.	.	.	.	.	.	.	.	.	.	.	.	.	.	.	16c/LL	16cc\LL	16cc\LL	16ee\LL	16cc\LL	16ee\LL
16c\	.	.	.	.	.	.	16r	.	16r	.	16r	.	.	.	.	16c/	16cc\	16cc\	16ee\	16cc\	16ee\
16c\JJ	.	.	.	.	.	.	16A\	De-	16cc\	De-	16ee\	Do-	.	.	.	16c/JJ	16cc\JJ	16cc\JJ	16ee\JJ	16cc\JJ	16ee\JJ
!	!	!	!	!	!	!	!	!	!	!	!	!	!	!	!	!	!	!	!	!LO:PB:g=original	!
=21	=21	=21	=21	=21	=21	=21	=21	=21	=21	=21	=21	=21	=21	=21	=21	=21	=21	=21	=21	=21	=21
!	!	!	!	!	!	!	!LO:TX:t=P:problem:takt zapisany powtórką	!	!	!	!	!	!	!	!	!	!	!	!	!	!
4A\	.	.	4A/	.	4a/	.	(y4c\yy	.	(8.cc\L	.	8.ee\L	.	2ryy	2ryy	2ryy	4c/	4cc\	4cc\	4ee\	4cc\	4ee\
.	.	.	.	.	.	.	.	.	16dd\Jk	.	16ff\Jk	-mi-	.	.	.	.	.	.	.	.	.
16r	.	.	4r	.	4r	.	8c\)yy	-us	8cc\)	-us	8ee\	-nus	.	.	.	16r	16r	16r	16r	16r	16r
16A\LL	.	.	.	.	.	.	.	.	.	.	.	.	.	.	.	16c/LL	16cc\LL	16cc\LL	16ee\LL	16cc\LL	16ee\LL
16A\	.	.	.	.	.	.	16ryy	.	16r	.	16r	.	.	.	.	16c/	16cc\	16cc\	16ee\	16cc\	16ee\
16A\JJ	.	.	.	.	.	.	16A\yy	De-	16cc\	Sa-	16ee\	De-	.	.	.	16c/JJ	16cc\JJ	16cc\JJ	16ee\JJ	16cc\JJ	16ee\JJ
=22	=22	=22	=22	=22	=22	=22	=22	=22	=22	=22	=22	=22	=22	=22	=22	=22	=22	=22	=22	=22	=22
!	!	!	!	!	!	!	!	!	!	!	!	!	!	!	!	!LO:TX:a:t=1.	!	!	!	!	!
4F\	.	.	4f/	.	4a/	.	(8F\	.	16a\LL	.	(8ff\	.	2ryy	2ryy	2ryy	2r	2r	16a\LL	8ff\L	16a\LL	8ff\L
.	.	.	.	.	.	.	.	.	16b\JJ	.	.	.	.	.	.	.	.	16b\	.	16b\	.
.	.	.	.	.	.	.	8F\	-us	16cc\LL	.	8ff\)	-us	.	.	.	.	.	16cc\	8ff\	16cc\	8ff\
.	.	.	.	.	.	.	.	.	16dd\JJ	.	.	.	.	.	.	.	.	16dd\JJ	.	16dd\JJ	.
!LO:TX:t=P:problem:mixed beam	!	!	!	!	!	!	!	!	!	!	!	!	!	!	!	!	!	!	!	!	!
8G\L	.	.	8e/L	.	8g/L	.	8G\)	Sa-	8cc\	.	8ee\	Sa-	.	.	.	.	.	8cc\L	8ee\	8cc\L	8ee\
8GG/J	.	.	8d/J	.	8b/J	.	8GG/	-ba-	8b\	-ba-	8dd\	-ba-	.	.	.	.	.	8b\J	8dd\J	8b\J	8dd\J
!	!	!	!	!	!	!	!LO:LB:g=original	!	!	!	!	!	!	!	!	!	!	!	!	!	!LO:LB:g=original
=23	=23	=23	=23	=23	=23	=23	=23	=23	=23	=23	=23	=23	=23	=23	=23	=23	=23	=23	=23	=23	=23
!LO:TX:t=P:problem:mixed beam	!	!	!	!	!	!	!	!	!	!	!	!	!	!	!	!	!	!	!	!	!
8C/L	.	.	8eL 8G/	.	8cc\L	.	8C/	-oth.	8cc\	-oth.	8ee\	-oth.	2ryy	2ryy	2ryy	8e/L	8cc\L	8cc\L	8ee\L	8cc\L	8ee\L
8c\	.	.	8e 8G/	.	8ccc 8ee\	.	8r;	.	8r	.	8r	.	.	.	.	8g/	8ee\	8ee\	8gg\	8ee\	8gg\
!	!	!	!	!	!	!	!LO:TX:b:i:t=Sequitur Pleni	!	!LO:TX:b:i:t=Pleni\nseq(ue)	!	!	!	!	!	!	!	!	!	!	!	!
8C/J	.	.	8eJ 8G/	.	8cccJ 8ee;\	.	4r	.	4r;	.	4r;	.	.	.	.	8e/J	8cc\J	8cc\J	8ee\J	8cc\J	8ee\J
8r	.	.	8r	.	8r	.	.	.	.	.	.	.	.	.	.	8r	8r	8r	8r	8r	8r
==	==	==	==	==	==	==	==	==	==	==	==	==	==	==	==	==	==	==	==	==	==
*-	*-	*-	*-	*-	*-	*-	*-	*-	*-	*-	*-	*-	*-	*-	*-	*-	*-	*-	*-	*-	*-
!!!system-decoration: [(g1)][(g2)]<s9>[(g3)][(g4)]s15
!!!RDF**kern: < = below
!!!ENC: Solarz Mateusz
!!!END: 2020-10-05
!!!AIN: 1 alto 1 bass 2 clars 2 cor 2 oboe 1 organ 1 soprn 1 timpa 1 tromp 1 tropm 2 violn
!!!ENC: Marta Lawrence
!!!END: 2022-02-03
